!!!COM: Mozart
!!!OTL: 12 Variations on "Ah Vous dirais-je, Maman" for the Piano,
!!!Variation: 7 b
**kern	**kern	**chords	**function	**comments
*M2/4	*M2/4	*M2/4	*M2/4	*M2/4
=-	=-	=-	=-	=-
2G 2e	(16ggLL	2I64	D	.
.	16ccc	.	.	.
.	16eee	.	.	.
.	16dddJJ	.	.	.
.	16cccLL	.	.	.
.	16bb	.	.	.
.	16aa	.	.	.
.	16ggJJ	.	.	.
=	=	=	=	=
2G 2d	16ffLL	2V7	.	.
.	16ee	.	.	.
.	16dd	.	.	.
.	16ccJJ	.	.	.
.	16bLL	.	.	.
.	16a	.	.	.
.	16g	.	.	.
.	16fJJ	.	.	.
=	=	=	=	=
2G 2c	8eL)	2I64	.	.
.	(8ee'J	.	.	.
.	8ff'L	.	.	.
.	8ff#'J)	.	.	.
=	=	=	=	=
2G 2B	(8.ggL	4C64	.	.
.	16eeJk	.	.	.
.	8dd)	4V	.	.
.	8r	.	.	.
=	=	=	=	=
2G 2e	(16ggLL	2I64	.	.
.	16ccc	.	.	.
.	16eee	.	.	.
.	16dddJJ	.	.	.
.	16cccLL	.	.	.
.	16bb	.	.	.
.	16aa	.	.	.
.	16ggJJ	.	.	.
=	=	=	=	=
2G 2d	16ffLL	2V7	.	.
.	16ee	.	.	.
.	16dd	.	.	.
.	16ccJJ	.	.	.
.	16bLL	.	.	.
.	16a	.	.	.
.	16g	.	.	.
.	16fJJ	.	.	.
=	=	=	=	=
2G 2c	8eL)	2I64	.	.
.	(8ee'J	.	.	.
.	8ff'L	.	.	.
.	8ff#'J)	.	.	.
=	=	=	=	=
2G 2B	(8.ggL	4C64	.	.
.	16eeJk	.	.	.
.	8dd)	4V	.	.
.	8r	.	.	.
*-	*-	*-	*-	*-
